Adwaita++/status/16/network-cellular-gprs.svg

<svg height="16" width="16" xmlns="http://www.w3.org/2000/svg">
  <path d="m2.063 0c-1.152 0-2.063.912-2.063 2.063v11.874c0 1.151.912 2.063 2.063 2.063h11.874c1.151 0 2.063-.912 2.063-2.063v-11.874c0-1.152-.912-2.063-2.063-2.063zm4.062 3.031h3.844c.003 0-.003.032 0 .031.527-.02 1.072.076 1.5.47.414.38.593 1.007.562 1.593h.031v.875h-2v-.968c-.017-.003.004-.003-.03 0h-3.939c-.007.003-.03-.004-.032 0-.007.022.007.046 0 .062v5.843c-.023-.021-.003.061 0 .063h3.909c.007-.02.03-.016.031 0v-1.969h-2.001v-2h4v3.938c0 .562-.227 1-.563 1.375a1.966 1.966 0 0 1 -1.468.625v.031h-3.907c-.624 0-.994-.241-1.343-.563a1.863 1.863 0 0 1 -.625-1.437c0-.002-.032.002-.032 0v-6.062c.063-.438.206-.89.563-1.282s.946-.625 1.5-.625z" fill="#474747"/>
</svg>

<svg xmlns="http://www.w3.org/2000/svg" width="16" height="16">
    <path d="M2.063 0C.911 0 0 .912 0 2.063v11.874C0 15.088.912 16 2.063 16h11.874C15.088 16 16 15.088 16 13.937V2.063C16 .911 15.088 0 13.937 0zm4.062 3.031H9.969c.003 0-.003.032 0 .031.527-.02 1.072.076 1.5.47.414.38.593 1.007.562 1.593h.031V6h-2v-.968c-.017-.003.004-.003-.03 0H6.093c-.007.003-.03-.004-.032 0-.007.022.007.046 0 .062v5.843c-.023-.021-.003.061 0 .063H9.97c.007-.02.03-.016.031 0V9.031H8v-2h4v3.938c0 .562-.227 1-.563 1.375a1.966 1.966 0 0 1-1.468.625V13H6.062c-.624 0-.994-.241-1.343-.563A1.863 1.863 0 0 1 4.094 11c0-.002-.032.002-.032 0V4.938c.063-.438.206-.89.563-1.282s.946-.625 1.5-.625z" style="marker:none" color="#bebebe" overflow="visible" fill="#474747"/>
</svg>
